X: 247
T: Ben Esîr-i Aşkınım
C: Udî Arşak Çömlekçiyan
O: Turkey
F: http://compmusic.upf.edu/node/140
N: huzzam--sarki--agiraksak--ben_esir-i--udi_arsak_comlekciyan
N: makam= huzzam
N: form= sarki
N: usul= agiraksak = 9/4
M: 9/4
L: 1/16
K: C _1/4B _3/4e ^3/4f 
Q: 1/4=69
%%MIDI tuningsystem comma53
f2g4_b2 a3g f3e d3c B2c2 d2e2 d2ef edc2  | \
w:  ARANAĞME  | 
d2e4d2 g2fg a2gf f3e feed d4 cdef g4  | 
w:   | 
f2g4_b2 a3g f3e d3c d2e2 f2ga f2e2 d2c2  | \
w:   | 
B2d2 c2B2 e2de f2ed d3c dccB B4 cdef g4  | 
w:   | 
f2g4_b2 a3g f3e d3c B2c2 d2e2 d2ef edc2  | \
w:  ARANAĞME  | 
d2e4d2 g2fg a2gf f3e feed d4 cdef g4  | 
w:   | 
f2g4_b2 a3g f3e d3c d2e2 f2ga f2e2 d2c2  | \
w:   | 
B2d2 c2B2 e2de f2ed d3c dccB B8 z4  | 
w:   | 
d8 z2c4d2 d8 e3d c4 d4  | efed e2f2 e2d4e2 f2g2 f2e2 d3e f3e e3d  | 
w:  *  Ben  e sîr_ i   |  *  *  *  *  *  *  *  aş kı nım  *  *  *  çok  | 
d3c _1/4e2dc c2B4c2 d2_3/4e2 f2g2 f2g2 a2b2 c'2d'2  | \
w:  *  *  *  *  *  tan  *  be ri  *  *  *  çeşm_  | 
c'bag fed2 z2_b2 a2g2 f2g2 a2{b}ag g6ab aggf  | 
w:  *  *  *  *  *  *  *  i  *  *  *  *  *  *  e *  dâ   SAZ  | 
g3c' =b^ab2 z2b4b2 b8 bag2 a2b2 a2b2  | \
w:  *  *  *  *  *  Uğ ru na  müm  | 
c'2b2 a2g2 f2g4_b2 b8 a4 g4 f4  | 
w:  *  *  *  *  *  kün se  bil lâh   | 
f2g2 gfed e2e4e2 e3d c2d2 e3d f2ed d4  | \
w:  *  *  *  *  *  *  *  ey le rim  *  *  *  câ   | 
dcde fgab c'_bag fed2 d2c4cB B6ab aggf  | 
w:  câ *  *  *  *  *  *  *  *  *  *  *  *  *  *  nım  *  fe *  dâ   SAZ  | 
g3c' =b^ab2 z2b4b2 b8 bag2 a2b2 a2b2  | \
w:  *  *  *  *  *  Uğ ru na  müm  | 
c'2b2 a2g2 f2g4_b2 b8 a4 g4 f4  | 
w:  *  *  *  *  *  kün se  bil lâh   | 
f2g2 gfed e2e4e2 e3d c2d2 e3d f2ed d4  | \
w:  *  *  *  *  *  *  *  ey le rim  *  *  *  câ   | 
dcde fgab c'_bag fed2 d2c4cB B6ab agg=f  | 
w:  câ *  *  *  *  *  *  *  *  *  *  *  *  *  *  nım  *  fe *  dâ   SAZ  | 
g8 z2=f4g2 g8 (3a2a2g2 f4 g4  | a3_b d'c'ba g2ga g2a2 a6g2 g2=f_1/4e f2g2 f2g2  | 
w:  *  Ra zı yım  hic  |  *  *  *  *  *  *  *  râ *  *  nı na  *  mah  | 
g2=f4_1/4e2 z2e4f2 e2{f}ed e2f2 e2fe d4 c'4  | \
w:  *  *  *  kûm  bi le  *  *  *  *  *  ol  | 
b2c'2 _b2a2 a3g agg=f g8 a2bc' bag2 f2a2  | 
w:  *  *  *  *  *  *  sa  *  bu  *  can   SAZ  | 
g3c' =b^ab2 z2b4b2 b8 bag2 a2b2 a2b2  | \
w:  *  *  *  *  *  Uğ ru na  müm  | 
c'2b2 a2g2 f2g4_b2 b8 a4 g4 f4  | 
w:  *  *  *  *  *  kün se  bil lâh   | 
f2g2 gfed e2e4e2 e3d c2d2 e3d f2ed d4  | \
w:  *  *  *  *  *  *  *  ey le rim  *  *  *  câ   | 
dcde fgab c'_bag fed2 d2c4cB B6|
w:  câ *  *  *  *  *  *  *  *  *  *  *  *  *  *  nım  *  fe *  dâ    | 


